src/img/icons/blog1.svg

<svg 
 xmlns="http://www.w3.org/2000/svg"
 xmlns:xlink="http://www.w3.org/1999/xlink"
 width="21px" height="17px">
<defs>
<filter id="Filter_0">
    <feFlood flood-color="rgb(255, 255, 255)" flood-opacity="1" result="floodOut" />
    <feComposite operator="atop" in="floodOut" in2="SourceGraphic" result="compOut" />
    <feBlend mode="normal" in="compOut" in2="SourceGraphic" />
</filter>

</defs>
<g filter="url(#Filter_0)">
<path fill-rule="evenodd"  fill="rgb(0, 0, 0)"
 d="M20.510,14.130 L18.104,14.130 L18.104,16.523 C18.104,16.785 17.888,16.997 17.622,16.997 L0.469,16.997 C0.203,16.997 -0.013,16.785 -0.013,16.523 L-0.013,4.321 C-0.013,4.060 0.203,3.848 0.469,3.848 L2.876,3.848 L2.876,1.455 C2.876,1.193 3.091,0.981 3.357,0.981 L20.510,0.981 C20.776,0.981 20.992,1.193 20.992,1.455 L20.992,13.657 C20.992,13.918 20.776,14.130 20.510,14.130 ZM2.454,14.951 C2.484,14.295 2.633,13.412 2.876,12.494 L2.876,5.118 L1.281,5.118 L1.281,15.726 L16.810,15.726 L16.810,14.130 L15.372,14.130 C15.489,14.462 15.579,14.753 15.637,14.955 L2.454,14.951 ZM19.698,2.252 L4.169,2.252 L4.169,12.860 L19.698,12.860 L19.698,2.252 ZM10.924,6.520 C11.694,7.605 12.365,8.563 12.930,9.166 C13.860,10.080 14.655,8.695 15.630,8.239 C17.052,7.574 18.223,11.031 18.525,12.088 L5.342,12.085 C5.425,10.284 6.384,6.786 7.779,5.497 C9.028,4.352 10.090,5.354 10.924,6.520 ZM15.569,6.207 C14.674,6.207 13.948,5.494 13.948,4.615 C13.948,3.736 14.674,3.023 15.569,3.023 C16.464,3.023 17.190,3.736 17.190,4.615 C17.190,5.494 16.464,6.207 15.569,6.207 Z"/>
</g>
</svg>

<svg xmlns="http://www.w3.org/2000/svg" width="21" height="17"><defs><filter id="a"><feFlood flood-color="#FFF" flood-opacity="1" result="floodOut"/><feComposite operator="atop" in="floodOut" in2="SourceGraphic" result="compOut"/><feBlend in="compOut" in2="SourceGraphic"/></filter></defs><g filter="url(#a)"><path fill-rule="evenodd" d="M20.51 14.13h-2.4v2.4c0 .25-.22.47-.49.47H.47a.48.48 0 01-.48-.48V4.32c0-.26.21-.47.48-.47h2.4v-2.4c0-.26.22-.47.49-.47H20.5c.27 0 .48.21.48.48v12.2c0 .26-.21.47-.48.47zm-18.06.82c.03-.65.18-1.54.43-2.46V5.12h-1.6v10.6h15.53v-1.59h-1.44c.12.33.2.62.27.82H2.45zM19.7 2.25H4.17v10.61H19.7V2.26zm-8.78 4.27c.77 1.09 1.45 2.04 2.01 2.65.93.91 1.72-.47 2.7-.93 1.42-.67 2.6 2.8 2.9 3.85H5.33c.08-1.8 1.04-5.3 2.44-6.6 1.25-1.14 2.31-.14 3.14 1.03zm4.65-.31a1.6 1.6 0 01-1.62-1.6c0-.87.72-1.59 1.62-1.59.9 0 1.62.72 1.62 1.6 0 .87-.73 1.59-1.62 1.59z"/></g></svg>
